X: 536
T: Heaton Chapel
M: 4/4
L: 1/8
R: reel
N:Posted to the woodenflute mailing list June 2002
Z:Robert McCown
K: Edor
E2B2 BAFA|BABc dedB|D2A2 AGFG|ADAB AGFG|
E2B2 BAFA|BABc dedB|ABde fedf|1edBA FGFD:|2edBA Beef||
g2e2 edBA|Beed edBe|dBAF DE(3FED|FAdA BAFA|
g2e2 edBA|Beed edBe|dFFF DFAB|dBAF BEE2|
g2e2 edBA|Beed edBe|dBAF DE(3FED|FAdA BAFA|
e2efg bge|f2edB AFD|BABc dedB|edBA FAFD||
<end>
<start>
